!! Stephen C. Foster, "Nelly was a Lady"
!! from 'Stephen Foster Song Book' Dover Publications (New York) pp. 81-83
!! NOTE:  Leading and trailing bars of rest have been omitted.
**kern
*M4/4
*MM60
*A:
=1
4a
8a
8e
8f#
8a
8a
8b
=2
2cc#
4b
4r
=3
4cc#
8b
8a
8f#
8g#
8.a
16b
=4
2.a
4r
=5
4a
8.a
16e
8f#
8a
8a
8b
=6
2cc#
4b
4r
=7
4cc#
8.b
16a
8f#
8g#
8.a
16b
=8
2.a
4r
=9
8e
8e
8.a
16e
8f#
4a
8r
=10
4b
8.b
16a
4b
4r
=11
8.cc#
16cc#
8b
8a
8f#
8a
8.a
16b
=12
8.cc#
16a
16b
8.b
2a
=13
8e
8e
8.a
16e
8f#
4a
8r
=14
4b
8.b
16a
4b
4r
=15
8.cc#
16cc#
8b
8a
8f#
8a
8.a
16b
=16
8.cc#
16a
16b
8.b
2a
==
*-
